src/assets/outline/LocationAdd.svg

<svg width="24" height="24" viewBox="0 0 24 24"  xmlns="http://www.w3.org/2000/svg">
<path d="M14.75 11.75H9.25C8.84 11.75 8.5 11.41 8.5 11C8.5 10.59 8.84 10.25 9.25 10.25H14.75C15.16 10.25 15.5 10.59 15.5 11C15.5 11.41 15.16 11.75 14.75 11.75Z" />
<path d="M12 14.5C11.59 14.5 11.25 14.16 11.25 13.75V8.25C11.25 7.84 11.59 7.5 12 7.5C12.41 7.5 12.75 7.84 12.75 8.25V13.75C12.75 14.16 12.41 14.5 12 14.5Z" />
<path d="M12.0002 22.76C10.5202 22.76 9.03018 22.2 7.87018 21.09C4.92018 18.25 1.66018 13.72 2.89018 8.33C4.00018 3.44 8.27018 1.25 12.0002 1.25C12.0002 1.25 12.0002 1.25 12.0102 1.25C15.7402 1.25 20.0102 3.44 21.1202 8.34C22.3402 13.73 19.0802 18.25 16.1302 21.09C14.9702 22.2 13.4802 22.76 12.0002 22.76ZM12.0002 2.75C9.09018 2.75 5.35018 4.3 4.36018 8.66C3.28018 13.37 6.24018 17.43 8.92018 20C10.6502 21.67 13.3602 21.67 15.0902 20C17.7602 17.43 20.7202 13.37 19.6602 8.66C18.6602 4.3 14.9102 2.75 12.0002 2.75Z" />
</svg>

<?xml version="1.0" encoding="UTF-8"?>
<svg width="24" height="24" viewBox="0 0 24 24" xmlns="http://www.w3.org/2000/svg">
 <path d="m14.75 11.75h-5.5c-0.41 0-0.75-0.34-0.75-0.75s0.34-0.75 0.75-0.75h5.5c0.41 0 0.75 0.34 0.75 0.75s-0.34 0.75-0.75 0.75z"/>
 <path d="m12 14.5c-0.41 0-0.75-0.34-0.75-0.75v-5.5c0-0.41 0.34-0.75 0.75-0.75s0.75 0.34 0.75 0.75v5.5c0 0.41-0.34 0.75-0.75 0.75z"/>
 <path d="m12 22.76c-1.48 0-2.97-0.56-4.13-1.67-2.95-2.84-6.21-7.37-4.98-12.76 1.11-4.89 5.38-7.08 9.11-7.08h0.01c3.73 0 8 2.19 9.11 7.09 1.22 5.39-2.04 9.91-4.99 12.75-1.16 1.11-2.65 1.67-4.13 1.67zm0-20.01c-2.91 0-6.65 1.55-7.64 5.91-1.08 4.71 1.88 8.77 4.56 11.34 1.73 1.67 4.44 1.67 6.17 0 2.67-2.57 5.63-6.63 4.57-11.34-1-4.36-4.75-5.91-7.66-5.91z"/>
</svg>
